build/images/icons/cart.svg

<?xml version="1.0" encoding="UTF-8"?>
<svg width="24px" height="24px" viewBox="0 0 24 24" version="1.1" xmlns="http://www.w3.org/2000/svg" xmlns:xlink="http://www.w3.org/1999/xlink">
    <!-- Generator: Sketch 63.1 (92452) - https://sketch.com -->
    <title>Shop</title>
    <desc>Created with Sketch.</desc>
    <g id="Shop" stroke="none" stroke-width="1" fill="none" fill-rule="evenodd">
        <path d="M9,20 C10.1045695,20 11,20.8954305 11,22 C11,23.1045695 10.1045695,24 9,24 C7.8954305,24 7,23.1045695 7,22 C7,20.8954305 7.8954305,20 9,20 Z M19,20 C20.1045695,20 21,20.8954305 21,22 C21,23.1045695 20.1045695,24 19,24 C17.8954305,24 17,23.1045695 17,22 C17,20.8954305 17.8954305,20 19,20 Z M3.26480909,0 C4.08490591,0 4.81579205,0.499657869 5.11894242,1.25009303 L5.17376904,1.40345001 L9.51590185,15.298275 C9.63450276,15.6777979 9.9648169,15.9472172 10.3525076,15.993066 L10.4703818,16 L17.6459341,16 C18.0139482,16 18.3485937,15.7983497 18.5225511,15.4812487 L18.5744108,15.3713907 L21.522967,8 L9,8 C8.44771525,8 8,7.55228475 8,7 C8,6.48716416 8.38604019,6.06449284 8.88337887,6.00672773 L9,6 L21.522967,6 C21.7774059,6 22.0295078,6.0485504 22.2657484,6.14304662 C23.2424789,6.53373882 23.741445,7.60807191 23.4323815,8.59542679 L23.3799204,8.74278135 L20.4313641,16.114172 C19.9997525,17.1932011 18.9869727,17.9202977 17.8385223,17.9938452 L17.6459341,18 L10.4703818,18 C9.22071048,18 8.10913699,17.2265311 7.66801523,16.0709751 L7.60694189,15.894825 L3.26480909,2 L1,2 C0.44771525,2 2.13162821e-14,1.55228475 2.13162821e-14,1 C2.13162821e-14,0.487164161 0.38604019,0.0644928393 0.883378875,0.00672773133 L1,0 L3.26480909,0 Z" id="Shape" fill="#FFFFFF"></path>
    </g>
</svg>

<svg width="24" height="24" xmlns="http://www.w3.org/2000/svg"><path d="M9 20a2 2 0 110 4 2 2 0 010-4zm10 0a2 2 0 110 4 2 2 0 010-4zM3.265 0a2 2 0 011.854 1.25l.055.153 4.342 13.895a1 1 0 00.837.695l.117.007h7.176a1 1 0 00.877-.519l.051-.11L21.523 8H9a1 1 0 01-.117-1.993L9 6h12.523a2 2 0 011.91 2.595l-.053.148-2.949 7.371a3 3 0 01-2.592 1.88l-.193.006H10.47a3 3 0 01-2.802-1.929l-.061-.176L3.265 2H1A1 1 0 01.883.007L1 0h2.265z" fill="#FFF" fill-rule="evenodd"/></svg>
